assets/Potted plant/Flat/potted_plant_flat.svg

<svg width="32" height="32" viewBox="0 0 32 32" fill="none" xmlns="http://www.w3.org/2000/svg">
<path d="M16.0075 19.2362C15.7575 19.2362 15.5575 19.0362 15.5575 18.7862V16.8794L13.1289 16.1523L11.4177 14.6914L15.5575 15.9316V15.6562C15.5575 14.6562 15.8375 13.6662 16.3975 12.8262C16.5654 12.5726 16.7039 12.3049 16.8126 12.0269L14.5967 11.3625L12.0178 9.6416L17.0513 11.1507C17.0887 10.9194 17.1075 10.684 17.1075 10.4462V8.34619H18.0075V10.4462C18.0075 10.562 18.0037 10.6772 17.9963 10.7918L21.8774 9.63159L18.8754 11.4765L17.8339 11.7879C17.6926 12.3201 17.466 12.8279 17.1575 13.2962C16.6975 13.9962 16.4575 14.8162 16.4575 15.6562V16.6486L20.5872 15.4114L18.0505 17.119L16.4575 17.5962V18.7862C16.4575 19.0362 16.2575 19.2362 16.0075 19.2362Z" fill="#44911B"/>
<path d="M17.4098 2.07207C15.5777 4.2028 15.5236 7.71414 17.2924 9.92096C17.3737 10.0188 17.509 10.0297 17.5902 9.93183C19.4223 7.80111 19.4764 4.28976 17.7076 2.08295C17.6263 1.97423 17.491 1.97423 17.4098 2.07207Z" fill="#86D72F"/>
<path d="M10.6575 11.5263L7.15747 10.4763C6.56747 12.4463 7.68747 14.5163 9.64747 15.1163L13.1475 16.1663C13.7475 14.1963 12.6275 12.1163 10.6575 11.5263Z" fill="#86D72F"/>
<path d="M24.0375 11.4363L20.5375 12.4863C18.5675 13.0863 17.4475 15.1563 18.0475 17.1263L21.5475 16.0763C23.5075 15.4763 24.6275 13.4063 24.0375 11.4363Z" fill="#86D72F"/>
<path d="M12.1275 6.73628L8.62747 5.68628C8.04747 7.65628 9.15747 9.72628 11.1275 10.3263L14.6275 11.3763C15.2175 9.40628 14.0975 7.32628 12.1275 6.73628Z" fill="#86D72F"/>
<path d="M24.8575 5.79639L21.3575 6.84639C19.3875 7.43639 18.2675 9.50639 18.8675 11.4864L22.3675 10.4364C24.3275 9.83639 25.4475 7.76639 24.8575 5.79639Z" fill="#86D72F"/>
<path d="M22 20C20.3351 18.75 18.2513 18 16 18C13.7487 18 11.6649 18.75 10 20L16 21.9688L22 20Z" fill="#7D4533"/>
<path d="M9.00745 23.9963L9.78745 28.6863C9.91745 29.4463 10.5674 29.9963 11.3274 29.9963H20.6774C21.4374 29.9963 22.0974 29.4463 22.2174 28.6863L23.0074 23.9963L16.0074 22.4062L9.00745 23.9963Z" fill="#F3AD61"/>
<path d="M23.5 24H8.5C8.22 24 8 23.78 8 23.5V20.5C8 20.22 8.22 20 8.5 20H23.5C23.78 20 24 20.22 24 20.5V23.5C24 23.78 23.78 24 23.5 24Z" fill="#F3C07B"/>
</svg>

<svg xmlns="http://www.w3.org/2000/svg" width="32" height="32" fill="none"><path fill="#44911B" d="M16.008 19.236c-.25 0-.45-.2-.45-.45V16.88l-2.43-.727-1.71-1.46 4.14 1.24v-.276c0-1 .28-1.99.84-2.83.167-.253.306-.521.415-.8l-2.216-.663-2.58-1.721 5.034 1.509c.038-.232.057-.467.057-.705v-2.1h.9v2.1c0 .116-.004.231-.012.346l3.881-1.16-3.002 1.845-1.041.31a5.13 5.13 0 0 1-.677 1.51c-.46.7-.7 1.52-.7 2.36v.992l4.13-1.238-2.537 1.708-1.593.477v1.19c0 .25-.2.45-.45.45Z"/><path fill="#86D72F" d="M17.41 2.072c-1.832 2.13-1.886 5.642-.118 7.849.082.098.217.109.298.01 1.832-2.13 1.886-5.641.118-7.848-.082-.109-.217-.109-.298-.01ZM10.658 11.526l-3.5-1.05c-.59 1.97.53 4.04 2.49 4.64l3.5 1.05c.6-1.97-.52-4.05-2.49-4.64ZM24.038 11.436l-3.5 1.05c-1.97.6-3.09 2.67-2.49 4.64l3.5-1.05c1.96-.6 3.08-2.67 2.49-4.64ZM12.127 6.736l-3.5-1.05c-.58 1.97.53 4.04 2.5 4.64l3.5 1.05a3.73 3.73 0 0 0-2.5-4.64ZM24.858 5.796l-3.5 1.05a3.711 3.711 0 0 0-2.49 4.64l3.5-1.05c1.96-.6 3.08-2.67 2.49-4.64Z"/><path fill="#7D4533" d="M22 20a9.977 9.977 0 0 0-6-2c-2.251 0-4.335.75-6 2l6 1.969L22 20Z"/><path fill="#F3AD61" d="m9.007 23.996.78 4.69c.13.76.78 1.31 1.54 1.31h9.35c.76 0 1.42-.55 1.54-1.31l.79-4.69-7-1.59-7 1.59Z"/><path fill="#F3C07B" d="M23.5 24h-15c-.28 0-.5-.22-.5-.5v-3c0-.28.22-.5.5-.5h15c.28 0 .5.22.5.5v3c0 .28-.22.5-.5.5Z"/></svg>
